X:1
T:The Bells
T:The Bells
T:Joseph Lincoln Hall
T:Irvin H. Mack, 1900
T:Public Domain Courtesy of the Cyber Hymnal™
T:Public Domain Courtesy of the Cyber Hymnal™
C:Joseph Lincoln Hall
Z:Public Domain
Z:Courtesy of the Cyber Hymnal™
%%score ( 1 2 ) 3
L:1/8
Q:1/4=100
M:6/8
K:G
V:1 treble 
V:2 treble 
V:3 bass 
V:1
 d | (z2 [Fd]2) d x | z2 [Gd]2 [Gd] x | [Gd]2 [GB] [DG]2 D | [^CE]3 D2 ^c | (z2 [Fc]2) c x | %6
w: 1.~The|* bells,|* the|* bells, They ring|this Eas- ter|* morn-|
w: 2.~Ring|* out,|* ring|* out, While earth|is filled with|* won-|
w: 3.~Ye|* bells,|* ye|* bells, O tell|the Sav- ior|* ris-|
 z2 [Fc]2 [Fc] x | [Fc]2 [FA] [DF]2 [Dc] | [DB]3- [DB]2 d | (z2 [Fd]2) d x | z2 [Gd]2 [Gd] x | %11
w: * ing,|* The bells, the|bells, * To|* peal|* a|
w: * der,|* Ring out, ring|out, * Far|* o’er|* the|
w: * en;|* Ye bells, ye|bells, * O|* tell|* what|
 [Gd]2 [Gd] [A^d]2 [Ad] | [Ge]3 [GB]2 e | (z2 [Ge]2) e x | z2 [Gd]2 [Gd] x | %15
w: * mes- sage sweet;|The bells, the|* bells,|* Their|
w: * moun- tain height.|Ring out, ring|* out,|* The|
w: * an- gels say;|Ye bells, ye|* bells,|* For|
 [Fd]2 [Fc] [GB]2 [FA] | [DG]6 ||"^Refrain" [B,D]2 [B,DB] [B,DA]2 [B,DG] | %18
w: * tones, the earth|a-|dorn- ing, The bells,|
w: * grave is torn|a-|sun- der; Ring out,|
w: * brok- en is|the|pris- on; Ye bells,|
 [B,D]2 [B,DB] [B,DA]2 [B,DG] | [DF]2 [DFd] [DFd]2 [DFd] | [DFd]6 | D2 [Dc] [DB]2 [DA] | %22
w: the bells, A ris-|en king to greet.|||
w: ring out, Send forth|the Eas- ter light.|Hear|the ring- ing and|
w: ye bells, The Lord|a- rose to- day.|||
 D2 [Dc] [DB]2 [DA] | [DG]2 [DGd] [DGd]2 [DGd] | [DGd]6 | [B,D]2 [B,DB] [B,DA]2 [B,DG] | %26
w: ||||
w: the sing- ing Of|the Eas- ter bells;|List|the rhym- ing of|
w: ||||
 [B,D]2 [B,DB] [B,DA]2 [B,DG] | [CE]2 [EGe] [EGe]2 [EGe] | [EGe]6 d | (z2 [Fd]2) d x | %30
w: ||||
w: the chim- ing, Hap-|py news it swells.|Hal- le-|* lu-|
w: ||||
 z2 [Gd]2 [Gd] x | [Fd]2 [Fc] [GB]2 [FA] | [DG-]3 [EG]2 |] %33
w: |||
w: * jah,|* hal- le- lu-|jah, Greet|
w: |||
V:2
 x | d3- G x2 | d3- F x2 | x5 D | x3 D2 x | c3- F x2 | c3- F x2 | x6 | x6 | d3- G x2 | d3- F x2 | %11
 x6 | x6 | e3- G x2 | d3- G x2 | x6 | x6 || x6 | x6 | x6 | x6 | D2 x4 | D2 x4 | x6 | x6 | x6 | x6 | %27
 x6 | x7 | d3- G x2 | d3- F x2 | x6 | x5 |] %33
V:3
 z | z2 [G,B,] [A,C]2 z | z2 ([A,C] [G,B,]2) [G,B,] | [G,B,]2 [G,D] [G,B,]2 [G,B,] | %4
 [G,_B,]3 [G,=B,]2 z | z2 ([D,A,] [D,A,]2) z | z2 ([D,A,] [D,A,]2) [D,A,] | %7
 [D,A,]2 [D,A,] [D,A,]2 [D,A,] | [G,,G,]3- [G,,G,]2 z | z2 ([G,B,] [A,C]2) z | %10
 z2 ([A,C] [G,B,]2) [G,B,] | [G,B,]2 [G,B,] [F,B,]2 [F,B,] | [E,B,]3 [E,B,]2 z | %13
 z2 ([C,C] [C,C]2) z | z2 ([D,B,] [D,B,]2) [D,B,] | [D,A,]2 [D,A,] [D,D]2 [D,C] | [G,B,]6 || %17
 [G,,G,]2 [G,,G,] [G,,G,]2 [G,,G,] | [G,,G,]2 [G,,G,] [G,,G,]2 [G,,G,] | %19
 [D,A,]2 [D,A,] [D,A,]2 [D,A,] | [D,A,]6 | [D,F,]2 [D,F,] [D,G,]2 [D,F,] | %22
 [D,F,]2 [D,F,] [D,G,]2 [D,F,] | [G,B,]2 [G,B,] [G,B,]2 [G,B,] | [G,B,]6 | %25
 [G,,G,]2 [G,,G,] [G,,G,]2 [G,,G,] | [G,,G,]2 [G,,G,] [G,,G,]2 [G,,G,] | %27
 [C,G,]2 [C,C] [C,C]2 [C,C] | [C,C]6 z | z2 [G,B,] [A,C]2 z | z2 [A,C] [G,B,]2 [G,B,] | %31
 [D,A,]2 [D,A,] [D,D]2 [D,C] | [G,B,]3- [G,B,]2 |] %33

